icons/perl-filled.svg

<svg width="256" height="256" viewBox="0 0 256 256" fill="none" xmlns="http://www.w3.org/2000/svg">
<rect width="256" height="256" rx="60" fill="#004065"/>
<path d="M88.7629 227.957C85.2123 227.74 82.1832 226.861 79.756 225.343C78.9298 224.826 78.7491 224.531 78.7491 223.703C78.7491 223.267 78.7945 223.106 79.0343 222.695C79.3578 222.14 80.1485 221.46 81.0745 220.941C81.9776 220.434 84.5417 219.399 85.408 219.19C86.8739 218.838 88.0273 218.285 89.1278 217.409C90.184 216.567 91.1044 215.254 91.4824 214.05C91.5781 213.744 91.9516 212.962 92.3124 212.311C96.9836 203.88 98.9151 194.197 97.7581 185.01C97.6864 184.44 97.5693 183.208 97.498 182.272C97.1524 177.738 96.5073 174.064 95.3156 169.842C95.1324 169.193 95.0014 168.503 94.9648 167.993C94.6986 164.288 93.9437 159.758 92.8995 155.6C92.3777 153.522 92.3417 152.978 92.3264 146.943C92.3104 140.669 92.2351 139.272 91.7997 137.177C91.6 136.216 91.2284 134.884 91.1602 134.884C91.1267 134.884 90.8241 135.053 90.4879 135.261C87.9883 136.805 84.6197 138.045 81.1683 138.691C80.6569 138.787 79.9626 138.956 79.6252 139.066C78.8171 139.331 77.6069 139.396 76.7776 139.22C75.4163 138.931 74.2471 138.158 73.5797 137.106C73.0323 136.243 72.4706 136.029 71.6427 136.367C71.4385 136.451 70.7854 136.9 70.1913 137.367C69.0518 138.262 68.5964 138.509 68.0877 138.509C67.6969 138.509 67.3824 138.305 67.0044 137.806C66.3536 136.947 62.2818 133.909 59.5171 132.219C58.963 131.881 58.2781 131.424 57.9953 131.205C56.5273 130.066 54.5115 129.142 52.5078 128.691L51.5878 128.484L51.3688 128.114C51.1521 127.748 51.15 127.725 51.1731 126.084C51.2031 123.958 51.159 123.804 50.3276 123.121C50.0052 122.856 49.6552 122.52 49.5497 122.374C49.2088 121.903 48.6444 121.821 47.5574 122.084C45.7777 122.514 45.4402 122.196 44.3976 119.108C44.1404 118.346 43.8165 117.494 43.6779 117.216C43.1537 116.162 42.4705 115.52 41.3811 115.055C40.2525 114.574 38.774 112.898 38.0186 111.244C37.1908 109.431 36.8514 107.485 36.6504 103.402C36.5416 101.19 36.4223 99.7196 36.2544 98.5189C35.6381 94.1119 35.6935 87.8554 36.3944 82.7227L36.5712 81.4279L37.3448 79.9482C38.4099 77.9106 39.2972 76.0957 40.2277 74.0512C41.1543 72.0154 42.4318 69.0016 42.4318 68.8515C42.4318 68.7128 41.4994 68.1594 40.6869 67.8159C39.2137 67.193 37.6147 66.864 33.7139 66.3811C32.4128 66.22 30.8782 65.9992 30.3038 65.8904C26.9886 65.2626 24.9518 64.1423 23.5672 62.1852C23.3246 61.8423 23.2144 61.569 23.1048 61.0384C22.686 59.0118 23.516 56.9449 25.7088 54.5534C26.6856 53.4882 30.6187 50.1615 31.4359 49.7095C32.9219 48.8874 34.3583 48.5874 37.9195 48.3556C40.2635 48.203 41.6658 48.0149 42.8493 47.6941C43.8738 47.4164 44.7986 47.2598 46.1555 47.134C48.8718 46.8823 50.1087 46.5515 51.0178 45.8335C51.4884 45.4617 51.9182 44.8327 52.0748 44.2865C52.3322 43.3884 53.2124 42.3994 54.3039 41.7818C54.5449 41.6455 55.4517 41.2259 56.3191 40.8492C58.1292 40.0633 58.7532 39.7287 59.4295 39.1813C59.6946 38.9668 59.9903 38.758 60.0866 38.7172C60.8736 38.3845 62.0456 38.3019 63.0037 38.5116C63.7703 38.6793 64.5184 38.9789 66.3794 39.8633C67.9412 40.6055 69.4223 41.1397 69.9231 41.1414C70.3182 41.1427 72.8432 42.5457 74.6999 43.7954C76.7436 45.1712 80.4303 48.4541 81.0286 49.431C81.2181 49.7404 81.4586 50.7146 81.6795 52.0672C81.9042 53.4431 82.1145 54.1563 82.4714 54.7534C82.726 55.1792 82.9871 55.427 84.1115 56.3094C85.1771 57.1458 86.337 59.1118 86.8393 60.9336C87.3731 62.8693 87.5167 64.9393 87.3961 68.9611C87.3348 71.0057 87.3372 72.4909 87.404 73.9055C87.4781 75.4733 87.4751 76.116 87.3904 76.7672C87.1928 78.2886 86.7584 79.6392 86.0222 81.021C85.7912 81.4545 85.6095 81.9332 85.548 82.27C85.3929 83.1198 85.0831 83.8053 84.006 85.6822C82.5358 88.2441 82.383 88.7387 82.5241 90.4785C82.5682 91.0208 82.5768 91.7699 82.5433 92.1432C82.3908 93.843 82.36 95.2123 82.4662 95.569C82.6976 96.3464 83.2589 96.6785 84.225 96.6096C84.5383 96.5872 84.8593 96.5478 84.9385 96.5218C85.3097 96.4001 85.8245 94.997 86.2824 92.859C86.6214 91.2765 86.9351 90.1549 87.1684 89.6913C87.2438 89.5413 87.6765 88.4797 88.1299 87.3322C89.5635 83.7039 90.8919 80.9461 92.5066 78.2466C94.9311 74.1928 97.3364 71.3323 100.533 68.7012C102.42 67.1476 104.106 66.0633 106.217 65.045C106.911 64.7101 107.728 64.2266 108.449 63.724C109.789 62.7894 112.542 60.5321 113.748 59.3799C117.717 55.5853 120.836 51.1992 122.907 46.501C123.545 45.0549 123.751 44.7455 124.731 43.7596C125.634 42.8511 126.623 42.0098 128.839 40.2655C131.673 38.0355 132.741 37.022 133.818 35.5442L134.39 34.7597L136.184 34.4083C139.563 33.7466 143.509 32.7667 144.637 32.3092C144.974 32.1724 146.213 31.6076 147.39 31.054C149.741 29.9482 151.208 29.3864 152.479 29.1051C153.172 28.9517 153.634 28.91 155.239 28.8558C158.307 28.7523 160.407 28.5658 163.239 28.1457C164.82 27.9111 164.537 27.8748 167.505 28.6935C169.477 29.2375 172.319 30.1572 173.737 30.71C174.875 31.1543 176.553 32.1713 178.339 33.5008C182.978 36.9526 186.435 41.9475 187.749 47.0981C188.08 48.3971 189.225 50.8967 190.384 52.8519C192.109 55.7618 193.977 58.1934 198.839 63.8561C201.61 67.0842 202.865 68.6066 203.994 70.108C206.259 73.1191 207.868 75.8193 208.911 78.3575C209.12 78.8662 209.64 79.8608 210.066 80.5677C213.966 87.0408 218.971 93.0339 224.9 98.3306C225.789 99.125 226.386 99.8337 227.028 100.859C228.215 102.754 228.928 104.878 229.712 108.849C230.171 111.171 230.427 112.298 230.775 113.515C231.084 114.6 231.086 114.603 231.645 115.203C233.103 116.765 233.419 118.402 232.425 119.242C232.082 119.532 231.431 119.79 231.042 119.79C230.88 119.79 230.873 119.829 230.92 120.438C230.947 120.794 231.13 121.714 231.327 122.482C231.523 123.25 231.728 124.183 231.782 124.554C231.959 125.775 231.733 126.871 231.131 127.709C230.969 127.934 230.688 128.533 230.505 129.041C228.988 133.261 226.854 137.705 224.093 142.393C223.446 143.492 222.791 144.606 222.637 144.869C222.034 145.903 220.719 146.721 219.662 146.721C219.222 146.721 219.122 146.692 218.837 146.481C218.376 146.139 218.216 145.77 218.059 144.682C217.983 144.155 217.805 143.092 217.665 142.319C217.284 140.221 217.142 139.177 217.083 138.028C216.968 135.799 217.472 133.946 218.577 132.526C219.062 131.904 219.16 131.66 219.456 130.333C219.866 128.498 220.034 126.298 219.929 124.136C219.83 122.087 219.398 119.844 218.748 118.015C218.428 117.111 218.421 117.065 218.445 116.054C218.509 113.372 217.765 110.917 216.207 108.674C215.988 108.358 215.774 108.082 215.732 108.06C215.592 107.987 214.87 108.627 214.654 109.015C214.373 109.52 214.197 110.263 214.03 111.652C213.954 112.282 213.815 113.048 213.723 113.353C213.52 114.018 213.279 115.306 212.982 117.312C211.444 127.689 211.9 137.756 214.382 148.164C214.644 149.263 214.898 150.462 214.947 150.828C215.074 151.779 215.057 153.769 214.907 155.496C214.63 158.686 214.587 159.727 214.686 160.883C214.834 162.615 214.917 162.887 215.498 163.529C216.786 164.954 217.268 166.328 217.259 168.548C217.253 170.044 217.128 170.829 216.402 173.986C216.14 175.125 215.845 176.573 215.747 177.204C215.649 177.835 215.453 179.017 215.31 179.831C213.909 187.837 214.637 196.066 217.427 203.765C217.716 204.562 217.855 205.114 217.965 205.911C218.255 207.998 218.807 210.364 219.502 212.503L219.848 213.569L219.579 213.976C218.356 215.82 216.33 217.145 213.835 217.73C213.053 217.914 212.848 217.931 211.489 217.928C209.87 217.924 209.393 217.848 208.203 217.407C207.641 217.199 207.615 217.197 206.275 217.227C203.234 217.297 202.411 217.273 201.971 217.104C201.443 216.901 200.963 216.489 200.703 216.018C200.322 215.328 200.458 213.968 201.037 212.681C201.184 212.355 201.731 211.339 202.252 210.421C203.574 208.099 203.997 206.941 203.997 205.652C203.997 205.434 204.113 204.877 204.254 204.416C205.168 201.421 206.013 197.506 206.446 194.258C207.374 187.293 207.198 180.734 205.889 173.457C205.466 171.11 205.361 170.26 205.004 166.328C204.537 161.18 204.202 158.972 203.541 156.683C203.281 155.782 203.237 155.696 202.7 155.056C198.859 150.476 196.301 145.914 194.459 140.359C194.223 139.646 193.706 138.348 193.311 137.473C191.582 133.647 189.769 128.746 188.57 124.655C188.465 124.299 188.355 124.008 188.325 124.008C188.295 124.008 188.205 124.1 188.126 124.211C188.047 124.323 187.648 124.883 187.238 125.457C182.759 131.727 180.04 138.757 179.154 146.352C178.964 147.982 178.89 152.026 179.021 153.602C179.078 154.274 179.16 155.506 179.204 156.34C179.262 157.415 179.386 158.439 179.631 159.854C180.238 163.362 180.289 164.499 179.9 165.884C179.673 166.692 179.06 167.738 178.505 168.263C178.265 168.491 177.109 169.888 175.935 171.368C174.761 172.848 173.032 175.025 172.093 176.205C167.536 181.934 165.252 185.67 163.818 189.741C163.215 191.452 163.927 192.535 166.547 193.892C168.926 195.125 169.461 195.565 170.228 196.922C171.653 199.444 172.594 202.167 173.026 205.03C173.182 206.057 173.302 208.953 173.21 209.469C173.151 209.801 173.146 209.805 172.518 210.036C172.17 210.164 171.373 210.467 170.747 210.709C167.953 211.79 166.367 211.975 164.951 211.386C164.182 211.066 163.711 210.583 162.504 208.877C161.004 206.755 157.859 202.774 157.56 202.618C157.332 202.5 156.919 203.818 156.596 205.689C156.201 207.984 155.846 208.836 154.985 209.561C154.402 210.051 153.935 210.258 152.479 210.671C149.136 211.617 145.902 212.054 142.238 212.055C139.821 212.055 138.46 211.952 136.152 211.593C135.127 211.434 135.111 211.428 134.818 211.125C133.631 209.902 134.051 208.268 135.943 206.75C137.09 205.83 137.72 205.508 139.963 204.694C142.348 203.828 144.508 202.174 145.91 200.14C146.306 199.565 147.044 198.119 147.046 197.915C147.046 197.851 147.228 197.601 147.45 197.36C147.968 196.797 148.242 196.337 148.404 195.758C148.76 194.483 148.344 193.23 147.239 192.247C146.964 192.002 146.299 191.372 145.761 190.847C144.54 189.654 141.581 187.189 139.73 185.821C138.959 185.252 136.948 183.806 135.262 182.608C130.547 179.26 128.769 177.91 126.674 176.086C125.501 175.065 125.066 174.554 124.446 173.468C122.546 170.14 122.381 165.821 123.923 159.817C124.149 158.937 124.256 158.69 124.82 157.745C125.534 156.551 125.998 155.43 126.335 154.09C126.676 152.733 126.724 150.719 126.456 149.077C126.151 147.209 126.246 146.45 127.124 143.742C127.663 142.083 127.903 141.161 127.993 140.42L128.052 139.926L127.627 139.868C126.969 139.778 123.45 139.803 122.47 139.905C120.844 140.074 119.265 140.341 117.858 140.687L117.372 140.806L117.314 143.005C117.212 146.885 116.806 151.36 116.249 154.732C116.136 155.414 116.109 155.474 115.764 155.805C114.899 156.634 113.735 158.339 113.201 159.558C112.678 160.755 112.407 161.785 112.262 163.14C112.168 164.011 112.145 164.084 111.819 164.541C111.405 165.12 111.189 165.591 110.978 166.372C110.844 166.871 110.816 167.403 110.787 169.99C110.741 174.212 110.741 174.127 110.815 176.353C110.868 177.952 110.853 178.595 110.741 179.572C110.405 182.521 109.574 185.283 108.219 187.957C107.467 189.443 106.808 191.597 106.27 194.332C105.764 196.901 105.557 198.568 105.034 204.283C104.696 207.98 104.55 209.326 104.286 211.164C103.872 214.044 103.108 217.314 102.725 217.845C102.201 218.573 102.078 219.491 102.224 221.596C102.396 224.085 102.229 224.854 101.343 225.663C100.773 226.183 100.187 226.45 98.7693 226.836C95.473 227.733 91.815 228.143 88.7627 227.957L88.7629 227.957ZM156.223 184.922C156.54 184.795 156.997 184.279 157.095 183.937C157.124 183.835 157.392 183.436 157.69 183.049C160.217 179.776 161.957 176.178 162.86 172.358C163.254 170.694 163.416 169.573 163.535 167.697C163.623 166.308 163.613 165.888 163.441 163.738C162.683 154.279 161.391 144.772 159.703 136.219C159.459 134.984 159.27 134.223 159.189 134.155C159.014 134.007 158.605 134.153 158.1 134.545C157.37 135.113 157.058 135.906 156.774 137.916C156.588 139.23 156.448 139.815 156.197 140.322C155.971 140.777 155.746 141.772 155.502 143.392C155.028 146.532 154.45 147.737 153.052 148.501C152.59 148.753 152.44 148.886 152.269 149.191C151.781 150.063 151.507 151.037 151.3 152.641C150.912 155.644 150.699 156.54 150.158 157.448L149.834 157.991L149.974 158.923C150.205 160.463 150.1 161.553 149.65 162.299C149.212 163.025 148.72 163.263 147.448 163.364C145.977 163.482 145.204 163.949 143.606 165.688C143.125 166.211 142.496 166.827 142.207 167.057C141.202 167.857 139.735 169.99 139.324 171.248C139.039 172.121 139.058 173.123 139.374 173.912C139.653 174.607 139.899 174.96 140.867 176.057C141.261 176.505 142.198 177.653 142.948 178.61C144.452 180.528 145.429 181.566 146.325 182.198C147.635 183.124 148.772 183.522 150.551 183.681C151.832 183.795 151.664 183.752 153.224 184.367C153.898 184.633 154.608 184.892 154.801 184.944C155.297 185.076 155.862 185.067 156.223 184.922L156.223 184.922Z" fill="white"/>
</svg>

<svg xmlns="http://www.w3.org/2000/svg" width="256" height="256" fill="none"><rect width="256" height="256" fill="#004065" rx="60"/><path fill="#fff" d="M88.763 227.957c-3.55-.217-6.58-1.096-9.007-2.614-.826-.517-1.007-.812-1.007-1.64 0-.436.046-.597.285-1.008.324-.555 1.114-1.235 2.04-1.754.904-.507 3.468-1.542 4.334-1.751 1.466-.352 2.62-.905 3.72-1.781 1.056-.842 1.976-2.155 2.354-3.359.096-.306.47-1.088.83-1.739 4.672-8.431 6.603-18.114 5.446-27.301a71 71 0 0 1-.26-2.738c-.346-4.534-.99-8.208-2.182-12.43-.184-.649-.315-1.339-.351-1.849-.266-3.705-1.021-8.235-2.065-12.393-.522-2.078-.558-2.622-.574-8.657-.016-6.274-.09-7.671-.526-9.766-.2-.961-.572-2.293-.64-2.293-.033 0-.336.169-.672.377-2.5 1.544-5.868 2.784-9.32 3.43a15 15 0 0 0-1.543.375c-.808.265-2.018.33-2.847.154-1.362-.289-2.53-1.062-3.198-2.114-.548-.863-1.11-1.077-1.937-.739-.204.084-.858.533-1.452 1-1.14.895-1.595 1.142-2.103 1.142-.391 0-.706-.204-1.084-.703-.65-.859-4.722-3.897-7.487-5.587a21 21 0 0 1-1.522-1.014c-1.468-1.139-3.483-2.063-5.487-2.514l-.92-.207-.22-.37c-.216-.366-.218-.389-.195-2.03.03-2.126-.014-2.28-.845-2.963-.323-.265-.673-.601-.778-.747-.341-.471-.906-.553-1.993-.29-1.78.43-2.117.112-3.16-2.976-.257-.762-.58-1.614-.72-1.892-.523-1.054-1.206-1.696-2.296-2.161-1.129-.481-2.607-2.157-3.362-3.811-.828-1.813-1.168-3.759-1.369-7.842-.108-2.212-.228-3.682-.396-4.883-.616-4.407-.56-10.664.14-15.796l.177-1.295.774-1.48a116 116 0 0 0 2.883-5.897c.926-2.036 2.204-5.05 2.204-5.2 0-.138-.933-.692-1.745-1.035-1.473-.623-3.072-.952-6.973-1.435-1.301-.161-2.836-.382-3.41-.49-3.315-.628-5.352-1.749-6.737-3.706-.242-.343-.353-.616-.462-1.147-.419-2.026.411-4.093 2.604-6.485.977-1.065 4.91-4.392 5.727-4.843 1.486-.823 2.922-1.123 6.483-1.354 2.345-.153 3.747-.341 4.93-.662 1.025-.278 1.95-.434 3.307-.56 2.716-.252 3.953-.583 4.862-1.3.47-.372.9-1.001 1.057-1.548.257-.898 1.137-1.887 2.229-2.504.24-.136 1.148-.556 2.015-.933 1.81-.786 2.434-1.12 3.11-1.668.266-.214.561-.423.658-.464.787-.332 1.959-.415 2.917-.205.766.167 1.514.467 3.375 1.351 1.562.742 3.043 1.277 3.544 1.278.395.002 2.92 1.405 4.777 2.654 2.044 1.376 5.73 4.66 6.329 5.636.19.31.43 1.284.65 2.636.225 1.376.436 2.09.792 2.686.255.426.516.674 1.64 1.556 1.066.837 2.226 2.803 2.728 4.625.534 1.935.678 4.005.557 8.027-.061 2.045-.059 3.53.008 4.945.074 1.567.071 2.21-.014 2.861a12.1 12.1 0 0 1-1.368 4.254c-.23.433-.413.912-.474 1.249-.155.85-.465 1.535-1.542 3.412-1.47 2.562-1.623 3.057-1.482 4.796.044.543.053 1.292.02 1.665-.153 1.7-.184 3.07-.078 3.426.232.777.793 1.11 1.759 1.04.313-.022.634-.061.714-.087.37-.122.886-1.525 1.343-3.663.34-1.582.653-2.704.886-3.168.076-.15.508-1.211.962-2.359 1.434-3.628 2.762-6.386 4.377-9.085 2.424-4.054 4.83-6.915 8.026-9.546 1.887-1.553 3.573-2.638 5.684-3.656a17 17 0 0 0 2.232-1.321c1.34-.935 4.093-3.192 5.299-4.344 3.969-3.795 7.088-8.18 9.159-12.879.638-1.446.844-1.755 1.824-2.741.903-.909 1.892-1.75 4.108-3.494 2.834-2.23 3.902-3.244 4.979-4.722l.572-.784 1.794-.352c3.379-.661 7.325-1.641 8.453-2.099a93 93 0 0 0 2.753-1.255c2.351-1.106 3.818-1.668 5.089-1.949.693-.153 1.155-.195 2.76-.25 3.068-.103 5.168-.29 8-.71 1.581-.234 1.298-.27 4.266.549 1.972.544 4.814 1.463 6.232 2.016 1.138.444 2.816 1.461 4.602 2.79 4.639 3.453 8.096 8.447 9.41 13.598.331 1.3 1.476 3.799 2.635 5.754 1.725 2.91 3.593 5.341 8.455 11.004 2.771 3.228 4.026 4.75 5.155 6.252 2.265 3.011 3.874 5.711 4.917 8.25.209.508.729 1.503 1.155 2.21 3.9 6.473 8.905 12.466 14.834 17.763a10.8 10.8 0 0 1 2.128 2.528c1.187 1.895 1.9 4.019 2.684 7.99.459 2.322.715 3.449 1.063 4.666.309 1.085.311 1.088.87 1.688 1.458 1.562 1.774 3.199.78 4.039-.343.29-.994.548-1.383.548-.162 0-.169.039-.122.648.027.356.21 1.276.407 2.044s.401 1.701.455 2.072c.177 1.221-.049 2.317-.651 3.155-.162.225-.443.824-.626 1.332-1.517 4.22-3.651 8.664-6.412 13.352l-1.456 2.476c-.603 1.034-1.918 1.852-2.975 1.852-.44 0-.54-.029-.825-.24-.461-.342-.621-.711-.778-1.799a84 84 0 0 0-.394-2.363c-.381-2.098-.523-3.142-.582-4.291-.115-2.229.389-4.082 1.494-5.502.485-.622.583-.866.879-2.193.41-1.835.578-4.035.473-6.197-.099-2.049-.531-4.292-1.181-6.121-.32-.904-.327-.95-.303-1.961.064-2.682-.68-5.137-2.238-7.38-.219-.316-.433-.592-.475-.614-.14-.073-.862.567-1.078.955-.281.505-.457 1.248-.624 2.637-.076.63-.215 1.396-.307 1.701-.203.665-.444 1.953-.741 3.959-1.538 10.377-1.082 20.444 1.4 30.852.262 1.099.516 2.298.565 2.664.127.951.11 2.941-.04 4.668-.277 3.19-.32 4.231-.221 5.387.148 1.732.231 2.004.812 2.646 1.288 1.425 1.77 2.799 1.761 5.019-.006 1.496-.131 2.281-.857 5.438-.262 1.139-.557 2.587-.655 3.218a164 164 0 0 1-.437 2.627c-1.401 8.006-.673 16.235 2.117 23.934.289.797.428 1.349.538 2.146.29 2.087.842 4.453 1.537 6.592l.346 1.066-.269.407c-1.223 1.844-3.249 3.169-5.744 3.754-.782.184-.987.201-2.346.198-1.619-.004-2.096-.08-3.286-.521-.562-.208-.588-.21-1.928-.18-3.041.07-3.864.046-4.304-.123a2.53 2.53 0 0 1-1.268-1.086c-.381-.69-.245-2.05.334-3.337.147-.326.694-1.342 1.215-2.26 1.322-2.322 1.745-3.48 1.745-4.769 0-.218.116-.775.257-1.236.914-2.995 1.759-6.91 2.192-10.158.928-6.965.752-13.524-.557-20.801-.423-2.347-.528-3.197-.885-7.129-.467-5.148-.802-7.356-1.463-9.645-.26-.901-.304-.987-.841-1.627-3.841-4.58-6.399-9.142-8.241-14.697-.236-.713-.753-2.011-1.148-2.886-1.729-3.826-3.542-8.727-4.741-12.818-.105-.356-.215-.647-.245-.647s-.12.092-.199.203l-.888 1.246c-4.479 6.27-7.198 13.3-8.084 20.895-.19 1.63-.264 5.674-.133 7.25.057.672.139 1.904.183 2.738.058 1.075.182 2.099.427 3.514.607 3.508.658 4.645.269 6.03-.227.808-.84 1.854-1.395 2.379-.24.228-1.396 1.625-2.57 3.105s-2.903 3.657-3.842 4.837c-4.557 5.729-6.841 9.465-8.275 13.536-.603 1.711.109 2.794 2.729 4.151 2.379 1.233 2.914 1.673 3.681 3.03a23.6 23.6 0 0 1 2.798 8.108c.156 1.027.276 3.923.184 4.439-.059.332-.064.336-.692.567-.348.128-1.145.431-1.771.673-2.794 1.081-4.38 1.266-5.796.677-.769-.32-1.24-.803-2.447-2.509-1.5-2.122-4.645-6.103-4.944-6.259-.228-.118-.641 1.2-.964 3.071-.395 2.295-.75 3.147-1.611 3.872-.583.49-1.05.697-2.506 1.11-3.343.946-6.577 1.383-10.241 1.384-2.417 0-3.778-.103-6.086-.462-1.025-.159-1.041-.165-1.334-.468-1.187-1.223-.767-2.857 1.125-4.375 1.147-.92 1.777-1.242 4.02-2.056 2.385-.866 4.545-2.52 5.947-4.554.396-.575 1.134-2.021 1.136-2.225 0-.064.182-.314.404-.555.518-.563.792-1.023.954-1.602.356-1.275-.06-2.528-1.165-3.511-.275-.245-.94-.875-1.478-1.4-1.221-1.193-4.18-3.658-6.031-5.026a419 419 0 0 0-4.468-3.213c-4.715-3.348-6.493-4.698-8.588-6.522-1.173-1.021-1.608-1.532-2.228-2.618-1.9-3.328-2.065-7.647-.523-13.651.226-.88.333-1.127.897-2.072a13 13 0 0 0 1.515-3.655c.341-1.357.389-3.371.121-5.013-.305-1.868-.21-2.627.668-5.335.539-1.659.779-2.581.869-3.322l.059-.494-.425-.058c-.658-.09-4.177-.065-5.157.037a35 35 0 0 0-4.612.782l-.486.119-.058 2.199c-.102 3.88-.508 8.355-1.065 11.727-.113.682-.14.742-.485 1.073-.865.829-2.029 2.534-2.563 3.753-.523 1.197-.794 2.227-.939 3.582-.094.871-.117.944-.443 1.401-.414.579-.63 1.05-.841 1.831-.134.499-.162 1.031-.191 3.618-.046 4.222-.046 4.137.028 6.363.053 1.599.038 2.242-.074 3.219a24.4 24.4 0 0 1-2.522 8.385c-.752 1.486-1.411 3.64-1.949 6.375-.506 2.569-.713 4.236-1.236 9.951-.338 3.697-.484 5.043-.748 6.881-.414 2.88-1.178 6.15-1.561 6.681-.524.728-.647 1.646-.501 3.751.172 2.489.005 3.258-.881 4.067-.57.52-1.156.787-2.574 1.173-3.296.897-6.954 1.307-10.006 1.121m67.46-43.035c.317-.127.774-.643.872-.985.029-.102.297-.501.595-.888 2.527-3.273 4.267-6.871 5.17-10.691.394-1.664.556-2.785.675-4.661.088-1.389.078-1.809-.094-3.959-.758-9.459-2.05-18.966-3.738-27.519-.244-1.235-.433-1.996-.514-2.064-.175-.148-.584-.002-1.089.39-.73.568-1.042 1.361-1.326 3.371-.186 1.314-.326 1.899-.577 2.406-.226.455-.451 1.45-.695 3.07-.474 3.14-1.052 4.345-2.45 5.109-.462.252-.612.385-.783.69-.488.872-.762 1.846-.969 3.45-.388 3.003-.601 3.899-1.142 4.807l-.324.543.14.932c.231 1.54.126 2.63-.324 3.376-.438.726-.93.964-2.202 1.065-1.471.118-2.244.585-3.842 2.324-.481.523-1.11 1.139-1.399 1.369-1.005.8-2.472 2.933-2.883 4.191-.285.873-.266 1.875.05 2.664.279.695.525 1.048 1.493 2.145a78 78 0 0 1 2.081 2.553c1.504 1.918 2.481 2.956 3.377 3.588 1.31.926 2.447 1.324 4.226 1.483 1.281.114 1.113.071 2.673.686.674.266 1.384.525 1.577.577.496.132 1.061.123 1.422-.022"/></svg>
